; generated by Slic3r Prusa Edition 1.42.0-alpha5+linux64 on 2019-02-08 at 16:29:39

; 

; external perimeters extrusion width = 0.45mm
; perimeters extrusion width = 0.45mm
; infill extrusion width = 0.45mm
; solid infill extrusion width = 0.45mm
; top infill extrusion width = 0.40mm
; first layer extrusion width = 0.42mm

M73 P0 R91
M73 Q0 S95
M201 X1000 Y1000 Z1000 E5000 ; sets maximum accelerations, mm/sec^2
M203 X200 Y200 Z12 E120 ; sets maximum feedrates, mm/sec
M204 P1250 R1250 T1250 ; sets acceleration (P, T) and retract acceleration (R), mm/sec^2
M205 X8.00 Y8.00 Z0.40 E1.50 ; sets the jerk limits, mm/sec
M205 S0 T0 ; sets the minimum extruding and travel feed rate, mm/sec
M107
M115 U3.5.1 ; tell printer latest fw version
M83  ; extruder relative mode
M104 S215 ; set extruder temp
M140 S60 ; set bed temp
M190 S60 ; wait for bed temp
M109 S215 ; wait for extruder temp
G28 W ; home all without mesh bed level
G80 ; mesh bed leveling
G1 Y-3.0 F1000.0 ; go outside print area
G92 E0.0
G1 X60.0 E9.0  F1000.0 ; intro line
M73 Q0 S95
M73 P0 R91
G1 X100.0 E12.5  F1000.0 ; intro line
G92 E0.0
M221 S95
M900 K30; Filament gcode
G21 ; set units to millimeters
G90 ; use absolute coordinates
M83 ; use relative distances for extrusion
;BEFORE_LAYER_CHANGE
G92 E0.0
;0.2


G1 E-0.80000 F2100.00000
G1 Z0.600 F10800.000
;AFTER_LAYER_CHANGE
;0.2
G1 X96.751 Y76.815
G1 Z0.200
G1 E0.80000 F2100.00000
M204 S1000
G1 F1200
G1 X97.457 Y76.323 E0.02698
G1 X98.302 Y76.142 E0.02709
G1 X151.674 Y76.141 E1.67342
G1 X152.497 Y76.304 E0.02631
G1 X153.199 Y76.764 E0.02631
G1 X153.676 Y77.454 E0.02631
G1 X153.858 Y78.269 E0.02620
G1 X153.858 Y131.696 E1.67514
G1 X153.696 Y132.497 E0.02563
G1 X153.249 Y133.185 E0.02574
G1 X152.529 Y133.683 E0.02743
G1 X151.672 Y133.859 E0.02743
G1 X98.304 Y133.858 E1.67331
G1 X97.503 Y133.696 E0.02563
G1 X96.815 Y133.249 E0.02574
G1 X96.317 Y132.529 E0.02743
G1 X96.141 Y131.672 E0.02743
G1 X96.142 Y78.304 E1.67331
G1 X96.304 Y77.503 E0.02563
G1 X96.718 Y76.865 E0.02386
G1 F8640
G1 X97.457 Y76.323 E-0.21160
G1 X98.302 Y76.142 E-0.19953
G1 X99.813 Y76.142 E-0.34887
G1 E-0.04000 F2100.00000
G1 Z0.800 F10800.000
G1 X101.334 Y123.747
G1 Z0.200
G1 E0.80000 F2100.00000
G1 F1200
G1 X101.948 Y123.554 E0.02017
G1 X102.290 Y123.493 E0.01089
G1 X102.780 Y123.461 E0.01540
G1 X103.416 Y123.517 E0.02000
G1 X103.755 Y123.592 E0.01090
G1 X104.221 Y123.750 E0.01544
G1 X104.792 Y124.047 E0.02017
G1 X105.189 Y124.338 E0.01544
G1 X105.440 Y124.569 E0.01069
G1 X105.756 Y124.928 E0.01499
G1 X105.956 Y125.214 E0.01093
G1 X106.253 Y125.784 E0.02017
G1 X106.446 Y126.398 E0.02017
G1 X106.507 Y126.740 E0.01090
G1 X106.538 Y127.219 E0.01503
G1 X106.523 Y127.559 E0.01069
G1 X106.448 Y128.045 E0.01540
G1 X106.253 Y128.665 E0.02041
G1 X105.956 Y129.236 E0.02017
G1 X105.756 Y129.521 E0.01090
G1 X105.440 Y129.881 E0.01503
G1 X105.189 Y130.112 E0.01069
G1 X104.793 Y130.402 E0.01540
G1 X104.221 Y130.700 E0.02020
G1 X103.756 Y130.858 E0.01540
G1 X103.416 Y130.933 E0.01093
G1 X102.775 Y130.989 E0.02017
G1 X102.134 Y130.933 E0.02017
G1 X101.795 Y130.858 E0.01090
G1 X101.329 Y130.700 E0.01543
G1 X100.758 Y130.403 E0.02017
G1 X100.361 Y130.112 E0.01544
G1 X100.105 Y129.877 E0.01090
G1 X99.696 Y129.389 E0.01997
G1 X99.440 Y128.968 E0.01544
G1 X99.299 Y128.665 E0.01049
G1 X99.184 Y128.350 E0.01049
G1 X99.067 Y127.872 E0.01543
G1 X99.011 Y127.225 E0.02037
G1 X99.067 Y126.584 E0.02017
G1 X99.142 Y126.245 E0.01090
G1 X99.296 Y125.791 E0.01503
G1 X99.440 Y125.482 E0.01069
G1 X99.696 Y125.061 E0.01544
G1 X100.105 Y124.573 E0.01997
G1 X100.361 Y124.338 E0.01089
G1 X100.757 Y124.048 E0.01540
G1 X101.281 Y123.775 E0.01852
G1 X101.455 Y124.109 F10800.000
G1 F1200
G1 X102.038 Y123.921 E0.01919
G1 X102.335 Y123.868 E0.00947
G1 X102.776 Y123.839 E0.01385
G1 X103.358 Y123.890 E0.01832
G1 X103.653 Y123.956 E0.00948
G1 X104.073 Y124.098 E0.01389
G1 X104.592 Y124.368 E0.01836
G1 X104.949 Y124.630 E0.01389
G1 X105.170 Y124.833 E0.00940
G1 X105.459 Y125.161 E0.01371
G1 X105.633 Y125.410 E0.00951
G1 X105.903 Y125.929 E0.01836
G1 X106.079 Y126.488 E0.01836
G1 X106.132 Y126.785 E0.00948
G1 X106.160 Y127.223 E0.01374
G1 X106.147 Y127.522 E0.00940
G1 X106.080 Y127.959 E0.01385
G1 X105.903 Y128.521 E0.01847
G1 X105.633 Y129.040 E0.01836
G1 X105.459 Y129.288 E0.00948
G1 X105.170 Y129.617 E0.01374
G1 X104.949 Y129.820 E0.00940
G1 X104.593 Y130.081 E0.01385
G1 X104.073 Y130.352 E0.01839
G1 X103.654 Y130.494 E0.01385
G1 X103.358 Y130.560 E0.00951
G1 X102.775 Y130.611 E0.01836
G1 X102.192 Y130.560 E0.01836
G1 X101.897 Y130.494 E0.00948
G1 X101.477 Y130.352 E0.01388
G1 X100.958 Y130.082 E0.01836
G1 X100.601 Y129.820 E0.01389
G1 X100.378 Y129.616 E0.00947
G1 X100.003 Y129.169 E0.01829
G1 X99.773 Y128.790 E0.01389
G1 X99.647 Y128.520 E0.00933
G1 X99.546 Y128.241 E0.00933
G1 X99.440 Y127.811 E0.01388
G1 X99.389 Y127.225 E0.01843
G1 X99.440 Y126.642 E0.01836
G1 X99.506 Y126.347 E0.00948
G1 X99.646 Y125.932 E0.01374
G1 X99.773 Y125.660 E0.00940
G1 X100.003 Y125.281 E0.01389
G1 X100.378 Y124.834 E0.01829
G1 X100.601 Y124.630 E0.00947
G1 X100.957 Y124.369 E0.01385
G1 X101.402 Y124.137 E0.01574
G1 X101.508 Y123.713 F10800.000
G1 F8640
G1 X102.038 Y123.921 E-0.15503
G1 X102.335 Y123.868 E-0.06978
G1 X102.776 Y123.839 E-0.10200
G1 X103.358 Y123.890 E-0.13493
G1 X103.653 Y123.956 E-0.06979
G1 X104.073 Y124.098 E-0.10226
G1 X104.558 Y124.350 E-0.12622
G1 E-0.04000 F2100.00000
G1 Z0.800 F10800.000
G1 X102.775 Y86.539
G1 Z0.200
G1 E0.80000 F2100.00000
G1 F1200
G1 X102.128 Y86.483 E0.02037
G1 X101.650 Y86.366 E0.01544
G1 X101.323 Y86.247 E0.01090
G1 X100.758 Y85.953 E0.01997
G1 X100.361 Y85.662 E0.01544
G1 X100.105 Y85.427 E0.01090
G1 X99.696 Y84.939 E0.01997
G1 X99.440 Y84.518 E0.01544
G1 X99.299 Y84.215 E0.01049
G1 X99.184 Y83.900 E0.01049
G1 X99.067 Y83.422 E0.01543
G1 X99.011 Y82.775 E0.02037
G1 X99.067 Y82.128 E0.02037
G1 X99.184 Y81.650 E0.01543
G1 X99.299 Y81.335 E0.01049
G1 X99.440 Y81.032 E0.01049
G1 X99.696 Y80.611 E0.01544
G1 X100.105 Y80.123 E0.01997
G1 X100.361 Y79.888 E0.01089
G1 X100.757 Y79.598 E0.01540
G1 X101.334 Y79.297 E0.02041
G1 X101.948 Y79.104 E0.02017
G1 X102.290 Y79.043 E0.01089
G1 X102.780 Y79.011 E0.01540
G1 X103.422 Y79.067 E0.02020
G1 X103.900 Y79.184 E0.01544
G1 X104.227 Y79.303 E0.01090
G1 X104.792 Y79.597 E0.01997
G1 X105.189 Y79.888 E0.01544
G1 X105.440 Y80.119 E0.01069
G1 X105.756 Y80.479 E0.01503
G1 X105.956 Y80.764 E0.01090
G1 X106.253 Y81.334 E0.02017
G1 X106.446 Y81.948 E0.02017
G1 X106.507 Y82.290 E0.01090
G1 X106.538 Y82.769 E0.01503
G1 X106.523 Y83.109 E0.01069
G1 X106.448 Y83.595 E0.01540
G1 X106.253 Y84.215 E0.02041
G1 X105.956 Y84.786 E0.02017
G1 X105.756 Y85.071 E0.01090
G1 X105.440 Y85.431 E0.01503
G1 X105.189 Y85.662 E0.01069
G1 X104.793 Y85.952 E0.01540
G1 X104.227 Y86.247 E0.02000
G1 X103.900 Y86.366 E0.01090
G1 X103.422 Y86.483 E0.01544
G1 X102.835 Y86.534 E0.01849
G1 X102.802 Y86.158 F10800.000
G1 F1200
G1 X102.189 Y86.110 E0.01927
G1 X101.759 Y86.004 E0.01389
G1 X101.475 Y85.901 E0.00947
G1 X100.958 Y85.632 E0.01829
G1 X100.601 Y85.370 E0.01389
G1 X100.378 Y85.166 E0.00947
G1 X100.003 Y84.719 E0.01829
G1 X99.773 Y84.340 E0.01389
G1 X99.647 Y84.070 E0.00933
G1 X99.546 Y83.791 E0.00933
G1 X99.440 Y83.361 E0.01388
G1 X99.389 Y82.775 E0.01843
G1 X99.440 Y82.189 E0.01843
G1 X99.546 Y81.759 E0.01388
G1 X99.647 Y81.480 E0.00933
G1 X99.773 Y81.210 E0.00933
G1 X100.003 Y80.831 E0.01389
G1 X100.378 Y80.384 E0.01829
G1 X100.601 Y80.180 E0.00947
G1 X100.957 Y79.919 E0.01385
G1 X101.479 Y79.647 E0.01847
G1 X102.038 Y79.471 E0.01836
G1 X102.335 Y79.418 E0.00947
G1 X102.776 Y79.389 E0.01385
G1 X103.361 Y79.440 E0.01839
G1 X103.791 Y79.546 E0.01389
G1 X104.075 Y79.649 E0.00948
G1 X104.592 Y79.918 E0.01829
G1 X104.949 Y80.180 E0.01389
G1 X105.170 Y80.383 E0.00940
G1 X105.459 Y80.712 E0.01374
G1 X105.633 Y80.960 E0.00948
G1 X105.903 Y81.479 E0.01836
G1 X106.079 Y82.038 E0.01836
G1 X106.132 Y82.335 E0.00948
G1 X106.160 Y82.773 E0.01374
G1 X106.147 Y83.072 E0.00940
G1 X106.080 Y83.509 E0.01385
G1 X105.903 Y84.071 E0.01847
G1 X105.633 Y84.590 E0.01836
G1 X105.459 Y84.838 E0.00948
G1 X105.170 Y85.167 E0.01374
G1 X104.949 Y85.370 E0.00940
G1 X104.593 Y85.631 E0.01385
G1 X104.075 Y85.901 E0.01832
G1 X103.791 Y86.004 E0.00948
G1 X103.361 Y86.110 E0.01389
G1 X102.862 Y86.153 E0.01570
G1 X102.601 Y86.505 F10800.000
G1 F8640
G1 X102.189 Y86.110 E-0.15557
G1 X101.759 Y86.004 E-0.10225
G1 X101.475 Y85.901 E-0.06978
G1 X100.958 Y85.632 E-0.13468
G1 X100.601 Y85.370 E-0.10226
G1 X100.378 Y85.166 E-0.06977
G1 X100.028 Y84.749 E-0.12568
G1 E-0.04000 F2100.00000
G1 Z0.800 F10800.000
G1 X143.493 Y83.260
G1 Z0.200
G1 E0.80000 F2100.00000
G1 F1200
G1 X143.462 Y82.781 E0.01503
G1 X143.477 Y82.441 E0.01069
G1 X143.552 Y81.955 E0.01540
G1 X143.745 Y81.341 E0.02020
G1 X143.963 Y80.899 E0.01544
G1 X144.150 Y80.606 E0.01090
G1 X144.555 Y80.123 E0.01977
G1 X144.811 Y79.888 E0.01089
G1 X145.207 Y79.598 E0.01540
G1 X145.784 Y79.297 E0.02041
G1 X146.398 Y79.104 E0.02017
G1 X146.740 Y79.043 E0.01090
G1 X147.230 Y79.011 E0.01540
G1 X147.872 Y79.067 E0.02020
G1 X148.350 Y79.184 E0.01544
G1 X148.665 Y79.299 E0.01049
G1 X148.968 Y79.440 E0.01049
G1 X149.389 Y79.696 E0.01544
G1 X149.877 Y80.105 E0.01997
G1 X150.112 Y80.361 E0.01089
G1 X150.402 Y80.757 E0.01540
G1 X150.703 Y81.334 E0.02041
G1 X150.896 Y81.948 E0.02017
G1 X150.957 Y82.290 E0.01090
G1 X150.988 Y82.769 E0.01503
G1 X150.973 Y83.109 E0.01069
G1 X150.898 Y83.595 E0.01540
G1 X150.703 Y84.215 E0.02041
G1 X150.406 Y84.786 E0.02017
G1 X150.206 Y85.071 E0.01090
G1 X149.882 Y85.441 E0.01543
G1 X149.389 Y85.854 E0.02017
G1 X148.968 Y86.110 E0.01544
G1 X148.653 Y86.257 E0.01090
G1 X148.046 Y86.448 E0.01997
G1 X147.559 Y86.523 E0.01543
G1 X147.225 Y86.538 E0.01049
G1 X146.891 Y86.523 E0.01049
G1 X146.404 Y86.448 E0.01543
G1 X145.784 Y86.253 E0.02037
G1 X145.208 Y85.953 E0.02037
G1 X144.811 Y85.662 E0.01543
G1 X144.555 Y85.427 E0.01090
G1 X144.150 Y84.944 E0.01977
G1 X143.963 Y84.651 E0.01090
G1 X143.745 Y84.209 E0.01543
G1 X143.554 Y83.602 E0.01997
G1 X143.504 Y83.319 E0.00902
G1 X143.875 Y83.253 F10800.000
G1 F1200
G1 X143.840 Y82.777 E0.01497
G1 X143.853 Y82.478 E0.00940
G1 X143.920 Y82.041 E0.01385
G1 X144.096 Y81.482 E0.01839
G1 X144.292 Y81.084 E0.01389
G1 X144.454 Y80.829 E0.00948
G1 X144.828 Y80.384 E0.01822
G1 X145.051 Y80.180 E0.00948
G1 X145.407 Y79.919 E0.01385
G1 X145.929 Y79.647 E0.01847
G1 X146.488 Y79.471 E0.01836
G1 X146.785 Y79.418 E0.00948
G1 X147.226 Y79.389 E0.01385
G1 X147.811 Y79.440 E0.01839
G1 X148.241 Y79.546 E0.01389
G1 X148.520 Y79.647 E0.00933
G1 X148.790 Y79.773 E0.00933
G1 X149.169 Y80.003 E0.01389
G1 X149.616 Y80.378 E0.01829
G1 X149.820 Y80.601 E0.00947
G1 X150.081 Y80.957 E0.01385
G1 X150.353 Y81.479 E0.01847
G1 X150.529 Y82.038 E0.01836
G1 X150.582 Y82.335 E0.00948
G1 X150.610 Y82.773 E0.01374
G1 X150.597 Y83.072 E0.00940
G1 X150.530 Y83.509 E0.01385
G1 X150.353 Y84.071 E0.01847
G1 X150.083 Y84.590 E0.01836
G1 X149.909 Y84.838 E0.00948
G1 X149.617 Y85.171 E0.01388
G1 X149.169 Y85.547 E0.01836
G1 X148.790 Y85.777 E0.01389
G1 X148.516 Y85.904 E0.00948
G1 X147.960 Y86.080 E0.01829
G1 X147.522 Y86.147 E0.01388
G1 X147.225 Y86.160 E0.00933
G1 X146.928 Y86.147 E0.00933
G1 X146.490 Y86.080 E0.01388
G1 X145.929 Y85.903 E0.01843
G1 X145.408 Y85.632 E0.01843
G1 X145.051 Y85.370 E0.01388
G1 X144.828 Y85.166 E0.00948
G1 X144.454 Y84.721 E0.01822
G1 X144.292 Y84.466 E0.00948
G1 X144.096 Y84.068 E0.01388
G1 X143.921 Y83.512 E0.01829
G1 X143.886 Y83.312 E0.00636
G1 X143.505 Y83.103 F10800.000
G1 F8640
G1 X143.840 Y82.777 E-0.12403
G1 X143.853 Y82.478 E-0.06925
G1 X143.920 Y82.041 E-0.10200
G1 X144.096 Y81.482 E-0.13546
G1 X144.292 Y81.084 E-0.10226
G1 X144.454 Y80.829 E-0.06978
G1 X144.828 Y80.384 E-0.13415
G1 X144.902 Y80.317 E-0.02307
G1 E-0.04000 F2100.00000
G1 Z0.800 F10800.000
G1 X145.784 Y123.747
G1 Z0.200
G1 E0.80000 F2100.00000
G1 F1200
G1 X146.398 Y123.554 E0.02017
G1 X146.740 Y123.493 E0.01090
G1 X147.230 Y123.461 E0.01540
G1 X147.866 Y123.517 E0.02000
G1 X148.205 Y123.592 E0.01090
G1 X148.659 Y123.746 E0.01503
G1 X148.968 Y123.890 E0.01069
G1 X149.389 Y124.146 E0.01544
G1 X149.877 Y124.555 E0.01997
G1 X150.112 Y124.811 E0.01089
G1 X150.402 Y125.207 E0.01540
G1 X150.703 Y125.784 E0.02041
G1 X150.896 Y126.398 E0.02017
G1 X150.957 Y126.740 E0.01090
G1 X150.988 Y127.219 E0.01503
G1 X150.973 Y127.559 E0.01069
G1 X150.898 Y128.045 E0.01540
G1 X150.703 Y128.665 E0.02041
G1 X150.406 Y129.236 E0.02017
G1 X150.206 Y129.521 E0.01090
G1 X149.882 Y129.891 E0.01543
G1 X149.389 Y130.304 E0.02017
G1 X148.968 Y130.560 E0.01544
G1 X148.653 Y130.707 E0.01090
G1 X148.046 Y130.898 E0.01997
G1 X147.559 Y130.973 E0.01543
G1 X147.225 Y130.988 E0.01049
G1 X146.891 Y130.973 E0.01049
G1 X146.405 Y130.898 E0.01540
G1 X145.784 Y130.703 E0.02041
G1 X145.208 Y130.403 E0.02037
G1 X144.811 Y130.112 E0.01543
G1 X144.555 Y129.877 E0.01090
G1 X144.150 Y129.394 E0.01977
G1 X143.963 Y129.101 E0.01090
G1 X143.745 Y128.659 E0.01543
G1 X143.554 Y128.052 E0.01997
G1 X143.493 Y127.710 E0.01090
G1 X143.462 Y127.231 E0.01503
G1 X143.477 Y126.891 E0.01069
G1 X143.552 Y126.405 E0.01540
G1 X143.745 Y125.791 E0.02020
G1 X143.963 Y125.349 E0.01544
G1 X144.150 Y125.056 E0.01090
G1 X144.555 Y124.573 E0.01977
G1 X144.811 Y124.338 E0.01089
G1 X145.207 Y124.048 E0.01540
G1 X145.731 Y123.775 E0.01853
G1 X145.905 Y124.109 F10800.000
G1 F1200
G1 X146.488 Y123.921 E0.01919
G1 X146.785 Y123.868 E0.00948
G1 X147.226 Y123.839 E0.01385
G1 X147.808 Y123.890 E0.01832
G1 X148.103 Y123.956 E0.00948
G1 X148.518 Y124.097 E0.01374
G1 X148.790 Y124.223 E0.00940
G1 X149.169 Y124.453 E0.01389
G1 X149.616 Y124.828 E0.01829
G1 X149.820 Y125.051 E0.00947
G1 X150.081 Y125.407 E0.01385
G1 X150.353 Y125.929 E0.01847
G1 X150.529 Y126.488 E0.01836
G1 X150.582 Y126.785 E0.00948
G1 X150.610 Y127.223 E0.01374
G1 X150.597 Y127.522 E0.00940
G1 X150.530 Y127.959 E0.01385
G1 X150.353 Y128.521 E0.01847
G1 X150.083 Y129.040 E0.01836
G1 X149.909 Y129.288 E0.00948
G1 X149.617 Y129.621 E0.01388
G1 X149.169 Y129.997 E0.01836
G1 X148.790 Y130.227 E0.01389
G1 X148.516 Y130.354 E0.00948
G1 X147.960 Y130.530 E0.01829
G1 X147.522 Y130.597 E0.01388
G1 X147.225 Y130.610 E0.00933
G1 X146.928 Y130.597 E0.00933
G1 X146.491 Y130.530 E0.01385
G1 X145.929 Y130.353 E0.01847
G1 X145.408 Y130.082 E0.01843
G1 X145.051 Y129.820 E0.01388
G1 X144.828 Y129.616 E0.00948
G1 X144.454 Y129.171 E0.01822
G1 X144.292 Y128.916 E0.00948
G1 X144.096 Y128.518 E0.01388
G1 X143.921 Y127.962 E0.01829
G1 X143.868 Y127.665 E0.00948
G1 X143.840 Y127.227 E0.01374
G1 X143.853 Y126.928 E0.00940
G1 X143.920 Y126.491 E0.01385
G1 X144.096 Y125.932 E0.01839
G1 X144.292 Y125.534 E0.01388
G1 X144.454 Y125.279 E0.00948
G1 X144.828 Y124.834 E0.01822
G1 X145.051 Y124.630 E0.00948
G1 X145.407 Y124.369 E0.01385
G1 X145.852 Y124.137 E0.01574
G1 X145.958 Y123.713 F10800.000
G1 F8640
G1 X146.488 Y123.921 E-0.15503
G1 X146.785 Y123.868 E-0.06978
G1 X147.226 Y123.839 E-0.10200
G1 X147.808 Y123.890 E-0.13492
G1 X148.103 Y123.956 E-0.06979
G1 X148.518 Y124.097 E-0.10119
G1 X148.790 Y124.223 E-0.06925
G1 X149.005 Y124.354 E-0.05803
G1 E-0.04000 F2100.00000
G1 Z0.800 F10800.000
G1 X151.083 Y131.083
G1 Z0.200
G1 E0.80000 F2100.00000
G1 F1200
G1 X98.917 Y131.083 E1.63562
G1 X98.917 Y78.917 E1.63562
G1 X151.083 Y78.917 E1.63562
G1 X151.083 Y131.023 E1.63374
G1 X151.460 Y131.460 F10800.000
G1 F1200
G1 X98.540 Y131.460 E1.65927
G1 X98.540 Y78.540 E1.65927
G1 X151.460 Y78.540 E1.65927
G1 X151.460 Y131.400 E1.65739
G1 X151.074 Y131.356 F10800.000
G1 F8640
G1 X148.169 Y131.404 E-0.76000
G1 E-0.04000 F2100.00000
G1 Z0.800 F10800.000
G1 X150.970 Y129.501
G1 Z0.200
G1 E0.80000 F2100.00000
G1 F1200
G1 X150.718 Y129.249 E0.01154
G1 X150.505 Y129.587 E0.01293
G1 X150.800 Y129.882 E0.01351
G1 X150.800 Y130.433 E0.01783
G1 X150.258 Y129.891 E0.02483
G1 X150.080 Y130.094 E0.00873
G1 X149.988 Y130.171 E0.00391
G1 X150.616 Y130.800 E0.02880
G1 X150.066 Y130.800 E0.01783
G1 X149.568 Y130.302 E0.02280
G1 X149.274 Y130.761 F10800.000
G1 F1200
