; generated by Slic3r Prusa Edition 1.40.1+linux64 on 2019-02-09 at 12:42:21

; 

; external perimeters extrusion width = 0.45mm
; perimeters extrusion width = 0.45mm
; infill extrusion width = 0.45mm
; solid infill extrusion width = 0.45mm
; top infill extrusion width = 0.40mm
; first layer extrusion width = 0.42mm

M107
M115 U3.2.1 ; tell printer latest fw version
M201 X1000 Y1000 Z200 E5000 ; sets maximum accelerations, mm/sec^2
M203 X200 Y200 Z12 E120 ; sets maximum feedrates, mm/sec
M204 S1250 T1250 ; sets acceleration (S) and retract acceleration (T)
M205 X10 Y10 Z0.4 E2.5 ; sets the jerk limits, mm/sec
M205 S0 T0 ; sets the minimum extruding and travel feed rate, mm/sec
M83  ; extruder relative mode
M104 S215 ; set extruder temp
M140 S60 ; set bed temp
M190 S60 ; wait for bed temp
M109 S215 ; wait for extruder temp
G28 W ; home all without mesh bed level
G80 ; mesh bed leveling
G1 Y-3.0 F1000.0 ; go outside print area
G92 E0.0
G1 X60.0 E9.0  F1000.0 ; intro line
G1 X100.0 E12.5  F1000.0 ; intro line
G92 E0.0
M221 S95
M900 K30; Filament gcode
G21 ; set units to millimeters
G90 ; use absolute coordinates
M83 ; use relative distances for extrusion
;BEFORE_LAYER_CHANGE
G92 E0.0
;0.2


G1 E-0.80000 F2100.00000
G1 Z0.600 F10800.000
;AFTER_LAYER_CHANGE
;0.2
G1 X113.601 Y97.790
G1 Z0.200
G1 E0.80000 F2100.00000
M204 S1000
G1 F1800
G1 X114.076 Y97.381 E0.01968
G1 X123.779 Y91.774 E0.35138
G1 X124.371 Y91.543 E0.01992
G1 X125.002 Y91.465 E0.01992
G1 X125.659 Y91.551 E0.02079
G1 X126.276 Y91.805 E0.02091
G1 X135.837 Y97.326 E0.34617
G1 X136.298 Y97.685 E0.01832
G1 X136.668 Y98.143 E0.01845
G1 X136.952 Y98.759 E0.02128
G1 X137.064 Y99.432 E0.02140
G1 X137.066 Y110.485 E0.34654
G1 X136.989 Y111.108 E0.01968
G1 X136.761 Y111.697 E0.01980
G1 X136.399 Y112.210 E0.01968
G1 X135.924 Y112.619 E0.01968
G1 X126.221 Y118.226 E0.35138
G1 X125.629 Y118.457 E0.01992
G1 X124.998 Y118.535 E0.01992
G1 X124.341 Y118.449 E0.02079
G1 X123.724 Y118.195 E0.02091
G1 X114.166 Y112.676 E0.34605
G1 X113.705 Y112.318 E0.01832
G1 X113.334 Y111.861 E0.01845
G1 X113.048 Y111.241 E0.02140
G1 X112.936 Y110.568 E0.02140
G1 X112.934 Y99.515 E0.34654
G1 X113.011 Y98.892 E0.01968
G1 X113.239 Y98.303 E0.01980
G1 X113.566 Y97.839 E0.01780
G1 X113.872 Y98.057 F10800.000
G1 F1800
G1 X114.300 Y97.685 E0.01777
G1 X123.950 Y92.110 E0.34945
G1 X124.459 Y91.910 E0.01714
G1 X125.005 Y91.842 E0.01726
G1 X125.565 Y91.916 E0.01771
G1 X126.088 Y92.131 E0.01771
G1 X135.635 Y97.644 E0.34567
G1 X136.038 Y97.958 E0.01601
G1 X136.355 Y98.353 E0.01589
G1 X136.595 Y98.881 E0.01817
G1 X136.688 Y99.456 E0.01828
G1 X136.689 Y110.485 E0.34579
G1 X136.622 Y111.020 E0.01692
G1 X136.427 Y111.523 E0.01692
G1 X136.112 Y111.966 E0.01703
G1 X135.700 Y112.315 E0.01692
G1 X126.050 Y117.890 E0.34945
G1 X125.541 Y118.090 E0.01714
G1 X124.998 Y118.158 E0.01714
G1 X124.438 Y118.085 E0.01771
G1 X123.912 Y117.869 E0.01783
G1 X114.365 Y112.356 E0.34567
G1 X113.965 Y112.045 E0.01589
G1 X113.645 Y111.647 E0.01601
G1 X113.405 Y111.119 E0.01817
G1 X113.312 Y110.544 E0.01828
G1 X113.311 Y99.515 E0.34579
G1 X113.378 Y98.980 E0.01692
G1 X113.573 Y98.477 E0.01692
G1 X113.837 Y98.106 E0.01427
G1 F8640
G1 X114.300 Y97.685 E-0.14441
G1 X116.608 Y96.352 E-0.61559
G1 E-0.04000 F2100.00000
G1 Z0.800 F10800.000
G1 X116.087 Y99.854
G1 Z0.200
G1 E0.80000 F2100.00000
G1 F1800
G1 X125.000 Y94.708 E0.32270
G1 X133.913 Y99.854 E0.32268
G1 X133.913 Y110.146 E0.32269
G1 X125.000 Y115.292 E0.32269
G1 X116.087 Y110.146 E0.32269
G1 X116.087 Y99.914 E0.32081
G1 X115.710 Y99.636 F10800.000
G1 F1800
G1 X125.000 Y94.273 E0.33635
G1 X134.290 Y99.636 E0.33633
G1 X134.290 Y110.364 E0.33634
G1 X125.000 Y115.727 E0.33634
G1 X115.710 Y110.364 E0.33634
G1 X115.710 Y99.696 E0.33446
G1 X116.110 Y99.636 F10800.000
G1 F8640
G1 X118.553 Y98.037 E-0.76000
G1 E-0.04000 F2100.00000
G1 Z0.800 F10800.000
G1 X125.642 Y95.210
G1 Z0.200
G1 E0.80000 F2100.00000
G1 F1800
G1 X133.800 Y103.367 E0.36290
G1 X133.800 Y103.902 F10800.000
G1 F1800
G1 X124.957 Y95.060 E0.39337
G1 X124.618 Y95.256 E0.01232
G1 X133.630 Y104.268 E0.40091
G1 X133.630 Y104.803 E0.01683
G1 X124.279 Y95.451 E0.41600
G1 X123.940 Y95.647 E0.01232
G1 X133.630 Y105.338 E0.43108
G1 X133.630 Y105.873 E0.01683
G1 X123.601 Y95.843 E0.44617
G1 X123.261 Y96.039 E0.01232
G1 X133.630 Y106.408 E0.46126
G1 X133.630 Y106.943 E0.01683
G1 X122.922 Y96.235 E0.47635
G1 X122.583 Y96.431 E0.01232
G1 X133.630 Y107.478 E0.49144
G1 X133.630 Y108.013 E0.01683
G1 X122.244 Y96.626 E0.50653
G1 X121.905 Y96.822 E0.01232
G1 X133.630 Y108.548 E0.52162
G1 X133.630 Y109.083 E0.01683
G1 X121.565 Y97.018 E0.53671
G1 X121.226 Y97.214 E0.01232
G1 X133.630 Y109.618 E0.55180
G1 X133.630 Y109.983 E0.01148
G1 X133.522 Y110.045 E0.00392
G1 X120.887 Y97.410 E0.56209
G1 X120.548 Y97.605 E0.01232
G1 X133.183 Y110.241 E0.56209
G1 X132.844 Y110.437 E0.01232
G1 X120.209 Y97.801 E0.56209
G1 X119.870 Y97.997 E0.01232
G1 X132.505 Y110.632 E0.56209
G1 X132.166 Y110.828 E0.01232
G1 X119.530 Y98.193 E0.56209
G1 X119.191 Y98.389 E0.01232
G1 X131.826 Y111.024 E0.56209
G1 X131.487 Y111.220 E0.01232
G1 X118.852 Y98.584 E0.56209
G1 X118.513 Y98.780 E0.01232
G1 X131.148 Y111.416 E0.56209
G1 X130.809 Y111.611 E0.01232
G1 X118.174 Y98.976 E0.56209
G1 X117.834 Y99.172 E0.01232
G1 X130.470 Y111.807 E0.56209
G1 X130.131 Y112.003 E0.01232
G1 X117.495 Y99.368 E0.56209
G1 X117.156 Y99.564 E0.01232
G1 X129.791 Y112.199 E0.56210
G1 X129.452 Y112.395 E0.01232
G1 X116.817 Y99.759 E0.56210
G1 X116.478 Y99.955 E0.01232
G1 X129.113 Y112.591 E0.56210
G1 X128.774 Y112.786 E0.01232
G1 X116.370 Y100.382 E0.55180
G1 X116.370 Y100.917 E0.01683
G1 X128.435 Y112.982 E0.53671
G1 X128.095 Y113.178 E0.01232
G1 X116.370 Y101.452 E0.52162
G1 X116.370 Y101.987 E0.01683
G1 X127.756 Y113.374 E0.50653
G1 X127.417 Y113.570 E0.01232
G1 X116.370 Y102.522 E0.49145
G1 X116.370 Y103.057 E0.01683
G1 X127.078 Y113.766 E0.47636
G1 X126.739 Y113.961 E0.01232
G1 X116.370 Y103.592 E0.46127
G1 X116.370 Y104.127 E0.01683
G1 X126.400 Y114.157 E0.44618
G1 X126.060 Y114.353 E0.01232
G1 X116.370 Y104.662 E0.43109
G1 X116.370 Y105.198 E0.01683
G1 X125.721 Y114.549 E0.41600
G1 X125.382 Y114.745 E0.01232
G1 X116.370 Y105.733 E0.40091
G1 X116.370 Y106.268 E0.01683
G1 X125.167 Y115.065 E0.39135
G1 X124.358 Y114.790 F10800.000
G1 F1800
G1 X116.370 Y106.803 E0.35534
G1 X116.370 Y107.338 E0.01683
G1 X123.092 Y114.059 E0.29903
G1 F8640
G1 X120.764 Y111.732 E-0.76000
G1 E-0.04000 F2100.00000
G1 Z0.800 F10800.000
G1 X121.826 Y113.329
G1 Z0.200
G1 E0.80000 F2100.00000
G1 F1800
G1 X116.370 Y107.873 E0.24272
G1 X116.370 Y108.408 E0.01683
G1 X120.560 Y112.598 E0.18641
G1 F8640
G1 X118.233 Y110.270 E-0.76000
G1 E-0.04000 F2100.00000
G1 Z0.800 F10800.000
G1 X119.294 Y111.867
G1 Z0.200
G1 E0.80000 F2100.00000
G1 F1800
G1 X116.370 Y108.943 E0.13010
G1 X116.370 Y109.478 E0.01683
G1 X118.028 Y111.136 E0.07378
G1 F8640
G1 X116.370 Y109.478 E-0.54160
G1 X116.370 Y108.943 E-0.12353
G1 X116.660 Y109.233 E-0.09486
G1 E-0.04000 F2100.00000
G1 Z0.800 F10800.000
G1 X126.908 Y95.940
G1 Z0.200
G1 E0.80000 F2100.00000
G1 F1800
G1 X133.800 Y102.832 E0.30659
G1 X133.800 Y102.297 F10800.000
G1 F1800
G1 X128.174 Y96.671 E0.25028
G1 F8640
G1 X130.501 Y98.999 E-0.76000
G1 E-0.04000 F2100.00000
G1 Z0.800 F10800.000
G1 X129.440 Y97.402
G1 Z0.200
G1 E0.80000 F2100.00000
G1 F1800
G1 X133.800 Y101.762 E0.19397
G1 X133.800 Y101.227 F10800.000
G1 F1800
G1 X130.705 Y98.133 E0.13766
G1 F8640
G1 X133.033 Y100.460 E-0.76000
G1 E-0.04000 F2100.00000
G1 Z0.800 F10800.000
G1 X131.971 Y98.864
G1 Z0.200
G1 E0.80000 F2100.00000
G1 F1800
G1 X133.800 Y100.692 E0.08134
M106 S255
;BEFORE_LAYER_CHANGE
G92 E0.0
;0.35


G1 F8640
G1 X131.971 Y98.864 E-0.59711
G1 E-0.20289 F2100.00000
G1 Z0.800 F10800.000
;AFTER_LAYER_CHANGE
;0.35
M104 S210 ; set temperature
G1 X136.952 Y98.759
G1 Z0.350
G1 E0.80000 F2100.00000
G1 F2663
G1 X137.064 Y99.432 E0.01651
G1 X137.066 Y110.485 E0.26730
G1 X136.989 Y111.108 E0.01518
G1 X136.761 Y111.697 E0.01527
G1 X136.399 Y112.210 E0.01518
G1 X135.924 Y112.619 E0.01518
G1 X126.221 Y118.226 E0.27103
G1 X125.629 Y118.457 E0.01537
G1 X124.998 Y118.535 E0.01537
G1 X124.341 Y118.449 E0.01603
G1 X123.724 Y118.195 E0.01613
G1 X114.166 Y112.676 E0.26692
G1 X113.705 Y112.318 E0.01413
G1 X113.334 Y111.861 E0.01423
G1 X113.048 Y111.241 E0.01651
G1 X112.936 Y110.568 E0.01651
G1 X112.934 Y99.515 E0.26730
G1 X113.011 Y98.892 E0.01518
G1 X113.239 Y98.303 E0.01527
G1 X113.601 Y97.790 E0.01518
G1 X114.076 Y97.381 E0.01518
G1 X123.779 Y91.774 E0.27103
G1 X124.371 Y91.543 E0.01537
G1 X125.002 Y91.465 E0.01537
G1 X125.659 Y91.551 E0.01603
G1 X126.276 Y91.805 E0.01613
G1 X135.837 Y97.326 E0.26702
G1 X136.298 Y97.685 E0.01413
G1 X136.668 Y98.143 E0.01423
G1 X136.927 Y98.705 E0.01496
G1 F8640
G1 X137.064 Y99.432 E-0.17101
G1 X137.065 Y101.983 E-0.58899
G1 E-0.04000 F2100.00000
G1 Z0.950 F10800.000
G1 X133.857 Y99.886
G1 Z0.350
G1 E0.80000 F2100.00000
M204 S800
G1 F2663
G1 X133.857 Y110.114 E0.26648
G1 X125.000 Y115.227 E0.26648
G1 X116.143 Y110.114 E0.26648
G1 X116.143 Y99.886 E0.26648
G1 X125.000 Y94.773 E0.26649
G1 X133.805 Y99.856 E0.26491
M204 S1000
G1 X134.275 Y99.645 F10800.000
M204 S800
G1 F2100
G1 X134.275 Y110.355 E0.27905
G1 X125.000 Y115.710 E0.27905
G1 X115.725 Y110.355 E0.27905
G1 X115.725 Y99.645 E0.27905
G1 X125.000 Y94.290 E0.27906
G1 X134.223 Y99.615 E0.27748
M204 S1000
G1 X134.075 Y99.991 F10800.000
G1 F8640
G1 X134.239 Y102.906 E-0.76000
G1 E-0.04000 F2100.00000
G1 Z0.950 F10800.000
G1 X125.113 Y94.983
G1 Z0.350
G1 E0.80000 F2100.00000
M204 S1500
G1 F2663
G1 X116.456 Y103.639 E0.32406
G1 X116.456 Y104.240 E0.01589
G1 X125.356 Y95.340 E0.33316
G1 X125.736 Y95.560 E0.01163
G1 X116.456 Y104.840 E0.34740
G1 X116.456 Y105.440 E0.01589
G1 X126.117 Y95.779 E0.36165
G1 X126.498 Y95.999 E0.01163
G1 X116.456 Y106.040 E0.37589
G1 X116.456 Y106.641 E0.01589
G1 X126.878 Y96.219 E0.39014
G1 X127.259 Y96.438 E0.01163
G1 X116.456 Y107.241 E0.40439
G1 X116.456 Y107.841 E0.01589
G1 X127.639 Y96.658 E0.41863
G1 X128.020 Y96.878 E0.01163
G1 X116.456 Y108.442 E0.43288
G1 X116.456 Y109.042 E0.01589
G1 X128.400 Y97.098 E0.44712
G1 X128.781 Y97.317 E0.01163
G1 X116.456 Y109.642 E0.46137
G1 X116.456 Y109.933 E0.00770
G1 X116.652 Y110.046 E0.00600
G1 X129.161 Y97.537 E0.46827
G1 X129.542 Y97.757 E0.01163
G1 X117.033 Y110.266 E0.46827
G1 X117.414 Y110.486 E0.01163
G1 X129.923 Y97.976 E0.46827
G1 X130.303 Y98.196 E0.01163
G1 X117.794 Y110.705 E0.46827
G1 X118.175 Y110.925 E0.01163
G1 X130.684 Y98.416 E0.46827
G1 X131.064 Y98.636 E0.01163
G1 X118.555 Y111.145 E0.46827
G1 X118.936 Y111.364 E0.01163
G1 X131.445 Y98.855 E0.46827
G1 X131.825 Y99.075 E0.01163
G1 X119.316 Y111.584 E0.46827
G1 X119.697 Y111.804 E0.01163
G1 X132.206 Y99.295 E0.46827
G1 X132.586 Y99.514 E0.01163
G1 X120.077 Y112.024 E0.46827
G1 X120.458 Y112.243 E0.01163
G1 X132.967 Y99.734 E0.46827
G1 X133.348 Y99.954 E0.01163
G1 X120.838 Y112.463 E0.46827
G1 X121.219 Y112.683 E0.01163
G1 X133.544 Y100.358 E0.46137
G1 X133.544 Y100.958 E0.01589
G1 X121.600 Y112.902 E0.44713
G1 X121.980 Y113.122 E0.01163
G1 X133.544 Y101.558 E0.43288
G1 X133.544 Y102.159 E0.01589
G1 X122.361 Y113.342 E0.41863
G1 X122.741 Y113.562 E0.01163
G1 X133.544 Y102.759 E0.40439
G1 X133.544 Y103.359 E0.01589
G1 X123.122 Y113.781 E0.39014
G1 X123.502 Y114.001 E0.01163
G1 X133.544 Y103.959 E0.37590
G1 X133.544 Y104.560 E0.01589
G1 X123.883 Y114.221 E0.36165
G1 X124.263 Y114.440 E0.01163
G1 X133.544 Y105.160 E0.34741
G1 X133.544 Y105.760 E0.01589
G1 X124.644 Y114.660 E0.33316
G1 X125.000 Y114.866 E0.01088
G1 X125.092 Y114.813 E0.00281
G1 X133.544 Y106.361 E0.31640
G1 X133.544 Y106.961 E0.01589
G1 X125.998 Y114.506 E0.28246
M204 S1000
G1 F8640
G1 X128.326 Y112.179 E-0.76000
G1 E-0.04000 F2100.00000
G1 Z0.950 F10800.000
G1 X127.419 Y113.686
G1 Z0.350
G1 E0.80000 F2100.00000
M204 S1500
G1 F2663
G1 X133.544 Y107.561 E0.22930
G1 X133.544 Y108.161 E0.01589
G1 X128.839 Y112.866 E0.17613
M204 S1000
G1 F8640
G1 X131.166 Y110.539 E-0.76000
G1 E-0.04000 F2100.00000
G1 Z0.950 F10800.000
G1 X130.259 Y112.046
G1 Z0.350
G1 E0.80000 F2100.00000
M204 S1500
G1 F2663
G1 X133.544 Y108.762 E0.12296
G1 X133.544 Y109.362 E0.01589
G1 X131.679 Y111.226 E0.06980
M204 S1000
G1 F8640
G1 X133.544 Y109.362 E-0.60886
G1 X133.544 Y108.762 E-0.13860
G1 X133.505 Y108.800 E-0.01253
G1 E-0.04000 F2100.00000
G1 Z0.950 F10800.000
G1 X116.268 Y103.227
G1 Z0.350
G1 E0.80000 F2100.00000
M204 S1500
G1 F2663
G1 X124.001 Y95.495 E0.28947
M204 S1000
G1 F8640
G1 X121.673 Y97.822 E-0.76000
G1 E-0.04000 F2100.00000
G1 Z0.950 F10800.000
G1 X122.581 Y96.314
G1 Z0.350
G1 E0.80000 F2100.00000
M204 S1500
G1 F2663
G1 X116.268 Y102.627 E0.23630
M204 S1000
G1 X116.268 Y102.027 F10800.000
M204 S1500
G1 F2663
G1 X121.161 Y97.134 E0.18314
M204 S1000
G1 F8640
G1 X118.833 Y99.462 E-0.76000
G1 E-0.04000 F2100.00000
G1 Z0.950 F10800.000
G1 X119.740 Y97.954
G1 Z0.350
G1 E0.80000 F2100.00000
M204 S1500
G1 F2663
G1 X116.268 Y101.426 E0.12998
M204 S1000
G1 X116.268 Y100.826 F10800.000
M204 S1500
G1 F2663
G1 X118.320 Y98.774 E0.07682
M204 S1000
;BEFORE_LAYER_CHANGE
G92 E0.0
;0.5


G1 F8640
G1 X116.268 Y100.826 E-0.67012
G1 E-0.12988 F2100.00000
G1 Z0.950 F10800.000
;AFTER_LAYER_CHANGE
;0.5
G1 X113.601 Y97.790
G1 Z0.500
G1 E0.80000 F2100.00000
G1 F2657
G1 X114.076 Y97.381 E0.01518
G1 X123.779 Y91.774 E0.27103
G1 X124.371 Y91.543 E0.01537
G1 X125.002 Y91.465 E0.01537
G1 X125.659 Y91.551 E0.01603
G1 X126.276 Y91.805 E0.01613
G1 X135.837 Y97.326 E0.26702
G1 X136.298 Y97.685 E0.01413
G1 X136.668 Y98.143 E0.01423
G1 X136.952 Y98.759 E0.01641
G1 X137.064 Y99.432 E0.01651
G1 X137.066 Y110.485 E0.26730
G1 X136.989 Y111.108 E0.01518
G1 X136.761 Y111.697 E0.01527
G1 X136.399 Y112.210 E0.01518
G1 X135.924 Y112.619 E0.01518
G1 X126.221 Y118.226 E0.27103
G1 X125.629 Y118.457 E0.01537
G1 X124.998 Y118.535 E0.01537
G1 X124.341 Y118.449 E0.01603
G1 X123.724 Y118.195 E0.01613
G1 X114.166 Y112.676 E0.26692
G1 X113.705 Y112.318 E0.01413
G1 X113.334 Y111.861 E0.01423
G1 X113.048 Y111.241 E0.01651
G1 X112.936 Y110.568 E0.01651
G1 X112.934 Y99.515 E0.26730
G1 X113.011 Y98.892 E0.01518
G1 X113.239 Y98.303 E0.01527
G1 X113.566 Y97.839 E0.01373
G1 F8640
G1 X114.076 Y97.381 E-0.15839
G1 X116.332 Y96.077 E-0.60161
G1 E-0.04000 F2100.00000
G1 Z1.100 F10800.000
G1 X116.143 Y99.886
G1 Z0.500
G1 E0.80000 F2100.00000
M204 S800
G1 F2657
G1 X125.000 Y94.773 E0.26649
G1 X133.857 Y99.886 E0.26647
G1 X133.857 Y110.114 E0.26648
G1 X125.000 Y115.227 E0.26648
G1 X116.143 Y110.114 E0.26648
G1 X116.143 Y99.946 E0.26492
M204 S1000
G1 X115.725 Y99.645 F10800.000
M204 S800
G1 F2100
G1 X125.000 Y94.290 E0.27906
G1 X134.275 Y99.645 E0.27904
G1 X134.275 Y110.355 E0.27905
G1 X125.000 Y115.710 E0.27905
G1 X115.725 Y110.355 E0.27905
G1 X115.725 Y99.705 E0.27749
M204 S1000
G1 X116.125 Y99.645 F10800.000
G1 F8640
G1 X118.568 Y98.046 E-0.76000
G1 E-0.04000 F2100.00000
G1 Z1.100 F10800.000
G1 X116.268 Y109.174
G1 Z0.500
G1 E0.80000 F2100.00000
M204 S1500
G1 F2657
G1 X118.320 Y111.226 E0.07683
M204 S1000
G1 F8640
G1 X116.268 Y109.174 E-0.67019
G1 E-0.12981 F2100.00000
G1 Z1.100 F10800.000
G1 X119.741 Y112.046
G1 Z0.500
G1 E0.80000 F2100.00000
M204 S1500
G1 F2657
G1 X116.456 Y108.762 E0.12296
G1 X116.456 Y108.161 E0.01589
G1 X121.161 Y112.866 E0.17612
M204 S1000
G1 F8640
G1 X118.834 Y110.539 E-0.76000
G1 E-0.04000 F2100.00000
G1 Z1.100 F10800.000
G1 X122.581 Y113.686
G1 Z0.500
G1 E0.80000 F2100.00000
M204 S1500
G1 F2657
G1 X116.456 Y107.561 E0.22929
G1 X116.456 Y106.961 E0.01589
G1 X124.001 Y114.506 E0.28245
M204 S1000
G1 F8640
G1 X121.674 Y112.179 E-0.76000
G1 E-0.04000 F2100.00000
G1 Z1.100 F10800.000
G1 X125.113 Y115.017
G1 Z0.500
G1 E0.80000 F2100.00000
M204 S1500
G1 F2657
G1 X116.456 Y106.361 E0.32406
G1 X116.456 Y105.760 E0.01589
G1 X125.356 Y114.660 E0.33316
G1 X125.736 Y114.440 E0.01163
G1 X116.456 Y105.160 E0.34740
G1 X116.456 Y104.560 E0.01589
G1 X126.117 Y114.221 E0.36165
G1 X126.498 Y114.001 E0.01163
G1 X116.456 Y103.960 E0.37589
G1 X116.456 Y103.359 E0.01589
G1 X126.878 Y113.781 E0.39014
