; generated by Slic3r Prusa Edition 1.40.1+linux64 on 2019-02-15 at 13:31:52

; 

; external perimeters extrusion width = 0.45mm
; perimeters extrusion width = 0.45mm
; infill extrusion width = 0.45mm
; solid infill extrusion width = 0.45mm
; top infill extrusion width = 0.40mm
; first layer extrusion width = 0.42mm

M107
M115 U3.5.1 ; tell printer latest fw version
M201 X1000 Y1000 Z1000 E9000 ; sets maximum accelerations, mm/sec^2
M203 X200 Y200 Z12 E120 ; sets maximum feedrates, mm/sec
M204 S1250 T1250 ; sets acceleration (S) and retract acceleration (T)
M205 X8 Y8 Z0.4 E1.5 ; sets the jerk limits, mm/sec
M205 S0 T0 ; sets the minimum extruding and travel feed rate, mm/sec
M83  ; extruder relative mode
M104 S215 ; set extruder temp
M140 S60 ; set bed temp
M190 S60 ; wait for bed temp
M109 S215 ; wait for extruder temp
G28 W ; home all without mesh bed level
G80 ; mesh bed leveling
G1 Y-3.0 F1000.0 ; go outside print area
G92 E0.0
G1 X60.0 E9.0  F1000.0 ; intro line
G1 X100.0 E12.5  F1000.0 ; intro line
G92 E0.0
M221 S95
M900 K30; Filament gcode
G21 ; set units to millimeters
G90 ; use absolute coordinates
M83 ; use relative distances for extrusion
;BEFORE_LAYER_CHANGE
G92 E0.0
;0.2


G1 E-0.80000 F2100.00000
G1 Z0.600 F10800.000
;AFTER_LAYER_CHANGE
;0.2
G1 X113.601 Y97.790
G1 Z0.200
G1 E0.80000 F2100.00000
M204 S1000
G1 F1800
G1 X114.076 Y97.381 E0.01968
G1 X123.779 Y91.774 E0.35138
G1 X124.372 Y91.543 E0.01992
G1 X125.002 Y91.465 E0.01992
G1 X125.659 Y91.551 E0.02079
G1 X126.273 Y91.803 E0.02079
G1 X135.834 Y97.324 E0.34617
G1 X136.295 Y97.682 E0.01832
G1 X136.666 Y98.139 E0.01845
G1 X136.952 Y98.759 E0.02140
G1 X137.064 Y99.432 E0.02140
G1 X137.066 Y110.485 E0.34654
G1 X136.989 Y111.108 E0.01968
G1 X136.761 Y111.697 E0.01980
G1 X136.399 Y112.210 E0.01968
G1 X135.924 Y112.619 E0.01968
G1 X126.221 Y118.226 E0.35138
G1 X125.628 Y118.457 E0.01992
G1 X124.998 Y118.535 E0.01992
G1 X124.341 Y118.449 E0.02079
G1 X123.727 Y118.197 E0.02079
G1 X114.166 Y112.676 E0.34617
G1 X113.705 Y112.318 E0.01832
G1 X113.334 Y111.861 E0.01845
G1 X113.048 Y111.241 E0.02140
G1 X112.936 Y110.568 E0.02140
G1 X112.934 Y99.515 E0.34654
G1 X113.011 Y98.892 E0.01968
G1 X113.239 Y98.303 E0.01980
G1 X113.566 Y97.839 E0.01780
G1 X113.872 Y98.057 F10800.000
G1 F1800
G1 X114.300 Y97.685 E0.01777
G1 X123.950 Y92.110 E0.34945
G1 X124.459 Y91.910 E0.01714
G1 X125.005 Y91.842 E0.01726
G1 X125.565 Y91.916 E0.01771
G1 X126.088 Y92.131 E0.01771
G1 X135.635 Y97.644 E0.34567
G1 X136.035 Y97.955 E0.01589
G1 X136.355 Y98.353 E0.01601
G1 X136.595 Y98.881 E0.01817
G1 X136.688 Y99.453 E0.01817
G1 X136.689 Y110.485 E0.34590
G1 X136.622 Y111.020 E0.01692
G1 X136.427 Y111.523 E0.01692
G1 X136.112 Y111.966 E0.01703
G1 X135.700 Y112.315 E0.01692
G1 X126.050 Y117.890 E0.34945
G1 X125.541 Y118.090 E0.01714
G1 X124.998 Y118.158 E0.01714
G1 X124.435 Y118.084 E0.01783
G1 X123.912 Y117.869 E0.01771
G1 X114.365 Y112.356 E0.34567
G1 X113.965 Y112.045 E0.01589
G1 X113.645 Y111.647 E0.01601
G1 X113.405 Y111.119 E0.01817
G1 X113.312 Y110.547 E0.01817
G1 X113.311 Y99.515 E0.34590
G1 X113.378 Y98.980 E0.01692
G1 X113.573 Y98.477 E0.01692
G1 X113.837 Y98.106 E0.01427
G1 F8640
G1 X114.300 Y97.685 E-0.14441
G1 X116.608 Y96.352 E-0.61559
G1 E-0.04000 F2100.00000
G1 Z0.800 F10800.000
G1 X122.106 Y107.344
G1 Z0.200
G1 E0.80000 F2100.00000
G1 F1800
G1 X121.969 Y106.675 E0.02140
G1 X121.937 Y106.188 E0.01533
G1 X121.955 Y105.824 E0.01141
G1 X122.026 Y105.364 E0.01459
G1 X122.219 Y104.754 E0.02007
G1 X122.371 Y104.428 E0.01128
G1 X122.618 Y104.022 E0.01490
G1 X123.030 Y103.531 E0.02009
G1 X123.286 Y103.296 E0.01090
G1 X123.681 Y103.006 E0.01535
G1 X124.260 Y102.705 E0.02047
G1 X124.886 Y102.508 E0.02059
G1 X125.365 Y102.434 E0.01520
G1 X125.711 Y102.419 E0.01085
G1 X126.347 Y102.475 E0.02002
G1 X126.823 Y102.591 E0.01537
G1 X127.152 Y102.711 E0.01097
G1 X127.721 Y103.007 E0.02011
G1 X128.114 Y103.296 E0.01528
G1 X128.370 Y103.530 E0.01090
G1 X128.782 Y104.022 E0.02010
G1 X129.035 Y104.439 E0.01529
G1 X129.181 Y104.754 E0.01089
G1 X129.371 Y105.355 E0.01977
G1 X129.431 Y105.697 E0.01089
G1 X129.463 Y106.176 E0.01504
G1 X129.448 Y106.520 E0.01081
G1 X129.373 Y107.003 E0.01532
G1 X129.178 Y107.623 E0.02037
G1 X128.881 Y108.193 E0.02016
G1 X128.682 Y108.478 E0.01089
G1 X128.357 Y108.848 E0.01544
G1 X127.869 Y109.258 E0.01998
G1 X127.574 Y109.446 E0.01098
G1 X127.134 Y109.662 E0.01535
G1 X126.518 Y109.856 E0.02025
G1 X126.035 Y109.930 E0.01535
G1 X125.700 Y109.945 E0.01049
G1 X125.366 Y109.931 E0.01049
G1 X124.880 Y109.856 E0.01543
G1 X124.260 Y109.660 E0.02038
G1 X123.681 Y109.359 E0.02044
G1 X123.286 Y109.069 E0.01537
G1 X123.036 Y108.839 E0.01066
G1 X122.633 Y108.384 E0.01905
G1 X122.565 Y107.753 E0.01990
G1 X122.150 Y107.385 E0.01738
G1 X122.451 Y107.148 F10800.000
G1 F1800
G1 X122.344 Y106.625 E0.01675
G1 X122.315 Y106.184 E0.01385
G1 X122.330 Y105.862 E0.01011
G1 X122.395 Y105.450 E0.01307
G1 X122.571 Y104.891 E0.01839
G1 X122.704 Y104.607 E0.00985
G1 X122.926 Y104.242 E0.01337
G1 X123.303 Y103.792 E0.01842
G1 X123.526 Y103.588 E0.00948
G1 X123.881 Y103.327 E0.01380
G1 X124.404 Y103.054 E0.01852
G1 X124.972 Y102.876 E0.01864
G1 X125.402 Y102.810 E0.01366
G1 X125.703 Y102.797 E0.00944
G1 X126.286 Y102.848 E0.01834
G1 X126.714 Y102.953 E0.01382
G1 X127.000 Y103.057 E0.00954
G1 X127.521 Y103.328 E0.01842
G1 X127.874 Y103.587 E0.01374
G1 X128.097 Y103.792 E0.00948
G1 X128.474 Y104.242 E0.01842
G1 X128.702 Y104.617 E0.01375
G1 X128.829 Y104.891 E0.00948
G1 X129.004 Y105.445 E0.01822
G1 X129.057 Y105.742 E0.00947
G1 X129.085 Y106.180 E0.01375
G1 X129.072 Y106.483 E0.00952
G1 X129.005 Y106.917 E0.01378
G1 X128.828 Y107.478 E0.01843
G1 X128.558 Y107.997 E0.01836
G1 X128.385 Y108.245 E0.00947
G1 X128.093 Y108.578 E0.01389
G1 X127.646 Y108.953 E0.01829
G1 X127.389 Y109.117 E0.00956
G1 X126.994 Y109.311 E0.01380
G1 X126.433 Y109.488 E0.01844
G1 X125.998 Y109.555 E0.01380
G1 X125.700 Y109.568 E0.00933
G1 X125.403 Y109.555 E0.00933
G1 X124.965 Y109.487 E0.01388
G1 X124.405 Y109.311 E0.01844
G1 X123.881 Y109.038 E0.01850
G1 X123.526 Y108.777 E0.01382
G1 X123.305 Y108.575 E0.00939
G1 X122.994 Y108.223 E0.01472
G1 X122.942 Y107.772 E0.01425
G1 X122.941 Y107.562 E0.00656
G1 X122.747 Y107.419 E0.00758
G1 X122.495 Y107.189 E0.01068
G1 X122.053 Y107.109 F10800.000
G1 F8640
G1 X122.344 Y106.625 E-0.13482
G1 X122.315 Y106.184 E-0.10198
G1 X122.330 Y105.862 E-0.07442
G1 X122.395 Y105.450 E-0.09627
G1 X122.571 Y104.891 E-0.13542
G1 X122.704 Y104.607 E-0.07254
G1 X122.926 Y104.242 E-0.09847
G1 X123.054 Y104.089 E-0.04607
G1 E-0.04000 F2100.00000
G1 Z0.800 F10800.000
G1 X116.087 Y110.146
G1 Z0.200
G1 E0.80000 F2100.00000
G1 F1800
G1 X116.087 Y99.854 E0.32269
G1 X125.000 Y94.708 E0.32269
G1 X133.913 Y99.854 E0.32269
G1 X133.913 Y110.146 E0.32269
G1 X125.000 Y115.292 E0.32269
G1 X116.139 Y110.176 E0.32081
G1 X115.710 Y110.364 F10800.000
G1 F1800
G1 X115.710 Y99.636 E0.33634
G1 X125.000 Y94.273 E0.33634
G1 X134.290 Y99.636 E0.33634
G1 X134.290 Y110.364 E0.33634
G1 X125.000 Y115.727 E0.33634
G1 X115.762 Y110.394 E0.33446
G1 X115.910 Y110.017 F10800.000
G1 F8640
G1 X115.746 Y107.102 E-0.76000
G1 E-0.04000 F2100.00000
G1 Z0.800 F10800.000
G1 X116.200 Y109.308
G1 Z0.200
G1 E0.80000 F2100.00000
G1 F1800
G1 X118.028 Y111.136 E0.08133
G1 F8640
G1 X116.200 Y109.308 E-0.59701
G1 E-0.20299 F2100.00000
G1 Z0.800 F10800.000
G1 X119.294 Y111.867
G1 Z0.200
G1 E0.80000 F2100.00000
G1 F1800
G1 X116.370 Y108.943 E0.13010
G1 X116.370 Y108.408 E0.01683
G1 X120.560 Y112.598 E0.18641
G1 F8640
G1 X118.233 Y110.270 E-0.76000
G1 E-0.04000 F2100.00000
G1 Z0.800 F10800.000
G1 X121.826 Y113.329
G1 Z0.200
G1 E0.80000 F2100.00000
G1 F1800
G1 X116.370 Y107.873 E0.24272
G1 X116.370 Y107.338 E0.01683
G1 X123.092 Y114.059 E0.29903
G1 F8640
G1 X120.764 Y111.732 E-0.76000
G1 E-0.04000 F2100.00000
G1 Z0.800 F10800.000
G1 X124.358 Y114.790
G1 Z0.200
G1 E0.80000 F2100.00000
G1 F1800
G1 X116.370 Y106.803 E0.35534
G1 X116.370 Y106.268 E0.01683
G1 X125.043 Y114.940 E0.38582
G1 X125.382 Y114.745 E0.01232
G1 X116.370 Y105.733 E0.40091
G1 X116.370 Y105.198 E0.01683
G1 X125.721 Y114.549 E0.41600
G1 X126.060 Y114.353 E0.01232
G1 X116.370 Y104.662 E0.43109
G1 X116.370 Y104.127 E0.01683
G1 X126.400 Y114.157 E0.44618
G1 X126.739 Y113.961 E0.01232
G1 X116.370 Y103.592 E0.46127
G1 X116.370 Y103.057 E0.01683
G1 X127.202 Y113.890 E0.48188
G1 F8640
G1 X124.875 Y111.562 E-0.76000
G1 E-0.04000 F2100.00000
G1 Z0.800 F10800.000
G1 X122.489 Y108.107
G1 Z0.200
G1 E0.80000 F2100.00000
G1 F1800
G1 X116.370 Y101.987 E0.27224
G1 X116.370 Y102.522 E0.01683
G1 X127.417 Y113.570 E0.49145
G1 X127.756 Y113.374 E0.01232
G1 X124.376 Y109.993 E0.15038
G1 X124.815 Y110.132 E0.01449
G1 X125.092 Y110.174 E0.00881
G1 X128.095 Y113.178 E0.13362
G1 X128.435 Y112.982 E0.01232
G1 X125.680 Y110.227 E0.12256
G1 X126.181 Y110.194 E0.01582
G1 X128.774 Y112.786 E0.11533
G1 X129.113 Y112.591 E0.01232
G1 X126.638 Y110.115 E0.11012
G1 X127.044 Y109.987 E0.01342
G1 X129.452 Y112.395 E0.10711
G1 X129.791 Y112.199 E0.01232
G1 X127.426 Y109.834 E0.10522
G1 X127.778 Y109.651 E0.01248
G1 X130.131 Y112.003 E0.10465
G1 X130.470 Y111.807 E0.01232
G1 X128.098 Y109.435 E0.10553
G1 X128.388 Y109.191 E0.01195
G1 X130.809 Y111.611 E0.10768
G1 X131.148 Y111.416 E0.01232
G1 X128.662 Y108.929 E0.11060
G1 X128.911 Y108.644 E0.01193
G1 X131.487 Y111.220 E0.11461
G1 X131.826 Y111.024 E0.01232
G1 X129.130 Y108.327 E0.11996
G1 X129.313 Y107.976 E0.01248
G1 X132.166 Y110.828 E0.12690
G1 X132.505 Y110.632 E0.01232
G1 X129.479 Y107.607 E0.13459
G1 X129.608 Y107.200 E0.01342
G1 X132.844 Y110.437 E0.14397
G1 X133.183 Y110.241 E0.01232
G1 X129.698 Y106.755 E0.15506
G1 X129.730 Y106.548 E0.00659
G1 X129.742 Y106.265 E0.00892
G1 X133.522 Y110.045 E0.16817
G1 X133.630 Y109.983 E0.00392
G1 X133.630 Y109.618 E0.01148
G1 X129.715 Y105.703 E0.17416
G1 X129.646 Y105.287 E0.01324
G1 X129.559 Y105.012 E0.00909
G1 X133.630 Y109.083 E0.18109
G1 X133.630 Y108.548 E0.01683
G1 X121.904 Y96.822 E0.52163
G1 X122.244 Y96.626 E0.01232
G1 X133.630 Y108.013 E0.50654
G1 X133.630 Y107.478 E0.01683
G1 X122.583 Y96.430 E0.49145
G1 X122.922 Y96.234 E0.01232
G1 X133.630 Y106.943 E0.47636
G1 X133.630 Y106.408 E0.01683
G1 X123.261 Y96.039 E0.46127
G1 X123.600 Y95.843 E0.01232
G1 X133.630 Y105.873 E0.44618
G1 X133.630 Y105.338 E0.01683
G1 X123.940 Y95.647 E0.43110
G1 X124.279 Y95.451 E0.01232
G1 X133.630 Y104.803 E0.41601
G1 X133.630 Y104.268 E0.01683
G1 X124.618 Y95.255 E0.40092
G1 X124.957 Y95.060 E0.01232
G1 X133.800 Y103.902 E0.39338
G1 X133.800 Y103.367 F10800.000
G1 F1800
G1 X125.642 Y95.210 E0.36290
G1 F8640
G1 X127.970 Y97.537 E-0.76000
G1 E-0.04000 F2100.00000
G1 Z0.800 F10800.000
G1 X126.908 Y95.940
G1 Z0.200
G1 E0.80000 F2100.00000
G1 F1800
G1 X133.800 Y102.832 E0.30659
G1 X133.800 Y102.297 F10800.000
G1 F1800
G1 X128.174 Y96.671 E0.25028
G1 F8640
G1 X130.501 Y98.999 E-0.76000
G1 E-0.04000 F2100.00000
G1 Z0.800 F10800.000
G1 X129.440 Y97.402
G1 Z0.200
G1 E0.80000 F2100.00000
G1 F1800
G1 X133.800 Y101.762 E0.19397
G1 X133.800 Y101.227 F10800.000
G1 F1800
G1 X130.705 Y98.133 E0.13766
G1 F8640
G1 X133.033 Y100.460 E-0.76000
G1 E-0.04000 F2100.00000
G1 Z0.800 F10800.000
G1 X131.971 Y98.864
G1 Z0.200
G1 E0.80000 F2100.00000
G1 F1800
G1 X133.800 Y100.692 E0.08134
G1 F8640
G1 X131.971 Y98.864 E-0.59711
G1 E-0.20289 F2100.00000
G1 Z0.800 F10800.000
G1 X127.130 Y102.582
G1 Z0.200
G1 E0.80000 F2100.00000
G1 F1800
G1 X121.565 Y97.018 E0.24753
G1 X121.226 Y97.214 E0.01232
G1 X126.190 Y102.177 E0.22081
G1 X125.618 Y102.140 E0.01803
G1 X120.887 Y97.409 E0.21046
G1 X120.548 Y97.605 E0.01232
G1 X125.127 Y102.185 E0.20373
G1 X124.822 Y102.232 E0.00971
G1 X124.683 Y102.275 E0.00459
G1 X120.209 Y97.801 E0.19904
G1 X119.869 Y97.997 E0.01232
G1 X124.276 Y102.403 E0.19601
G1 X124.151 Y102.442 E0.00410
G1 X123.907 Y102.569 E0.00866
G1 X119.530 Y98.193 E0.19470
G1 X119.191 Y98.389 E0.01232
G1 X123.555 Y102.753 E0.19414
G1 X123.244 Y102.976 E0.01206
G1 X118.852 Y98.584 E0.19537
G1 X118.513 Y98.780 E0.01232
G1 X122.951 Y103.219 E0.19746
G1 X122.692 Y103.494 E0.01190
G1 X118.174 Y98.976 E0.20099
G1 X117.834 Y99.172 E0.01232
G1 X122.448 Y103.785 E0.20523
G1 X122.235 Y104.108 E0.01215
G1 X117.495 Y99.368 E0.21086
G1 X117.156 Y99.564 E0.01232
G1 X122.047 Y104.454 E0.21757
G1 X121.954 Y104.651 E0.00683
G1 X121.895 Y104.838 E0.00618
G1 X116.817 Y99.759 E0.22593
G1 X116.478 Y99.955 E0.01232
G1 X121.767 Y105.245 E0.23532
G1 X121.688 Y105.700 E0.01454
G1 X116.370 Y100.382 E0.23657
G1 X116.370 Y100.917 E0.01683
G1 X121.655 Y106.202 E0.23510
G1 X121.703 Y106.785 E0.01841
G1 X116.200 Y101.283 E0.24479
M106 S255
;BEFORE_LAYER_CHANGE
G92 E0.0
;0.35


G1 F8640
G1 X118.528 Y103.610 E-0.76000
G1 E-0.04000 F2100.00000
G1 Z0.800 F10800.000
;AFTER_LAYER_CHANGE
;0.35
M104 S210 ; set temperature
G1 X113.011 Y98.892
G1 Z0.350
G1 E0.80000 F2100.00000
G1 F2577
G1 X113.239 Y98.303 E0.01527
G1 X113.601 Y97.790 E0.01518
G1 X114.076 Y97.381 E0.01518
G1 X123.779 Y91.774 E0.27104
G1 X124.372 Y91.543 E0.01537
G1 X125.002 Y91.465 E0.01537
G1 X125.659 Y91.551 E0.01603
G1 X126.273 Y91.803 E0.01603
G1 X135.834 Y97.324 E0.26702
G1 X136.295 Y97.682 E0.01413
G1 X136.666 Y98.139 E0.01423
G1 X136.952 Y98.759 E0.01651
G1 X137.064 Y99.432 E0.01651
G1 X137.066 Y110.485 E0.26730
G1 X136.989 Y111.108 E0.01518
G1 X136.761 Y111.697 E0.01527
G1 X136.399 Y112.210 E0.01518
G1 X135.924 Y112.619 E0.01518
G1 X126.221 Y118.226 E0.27104
G1 X125.628 Y118.457 E0.01537
G1 X124.998 Y118.535 E0.01537
G1 X124.341 Y118.449 E0.01603
G1 X123.727 Y118.197 E0.01603
G1 X114.166 Y112.676 E0.26702
G1 X113.705 Y112.318 E0.01413
G1 X113.334 Y111.861 E0.01423
G1 X113.048 Y111.241 E0.01651
G1 X112.936 Y110.568 E0.01651
G1 X112.934 Y99.515 E0.26730
G1 X113.004 Y98.952 E0.01373
G1 F8640
G1 X113.239 Y98.303 E-0.15930
G1 X113.601 Y97.790 E-0.14492
G1 X114.076 Y97.381 E-0.14492
G1 X115.242 Y96.707 E-0.31087
G1 E-0.04000 F2100.00000
G1 Z0.950 F10800.000
G1 X121.912 Y106.755
G1 Z0.350
G1 E0.80000 F2100.00000
M204 S800
G1 F1500
G1 X121.881 Y106.182 E0.01495
G1 X121.904 Y105.776 E0.01059
G1 X121.971 Y105.356 E0.01109
G1 X122.167 Y104.732 E0.01702
G1 X122.333 Y104.382 E0.01011
G1 X122.561 Y104.007 E0.01143
G1 X122.774 Y103.728 E0.00914
G1 X123.000 Y103.482 E0.00870
G1 X123.251 Y103.253 E0.00885
G1 X123.647 Y102.962 E0.01282
G1 X124.225 Y102.660 E0.01700
G1 X124.553 Y102.540 E0.00909
G1 X124.900 Y102.449 E0.00935
G1 X125.357 Y102.379 E0.01204
G1 X125.709 Y102.363 E0.00918
G1 X126.356 Y102.420 E0.01692
G1 X126.836 Y102.537 E0.01287
G1 X127.161 Y102.655 E0.00902
G1 X127.464 Y102.796 E0.00871
G1 X127.769 Y102.973 E0.00918
G1 X128.148 Y103.251 E0.01226
G1 X128.401 Y103.483 E0.00893
G1 X128.638 Y103.743 E0.00917
G1 X128.924 Y104.134 E0.01264
G1 X129.226 Y104.714 E0.01703
G1 X129.386 Y105.183 E0.01291
G1 X129.463 Y105.529 E0.00924
G1 X129.519 Y106.169 E0.01674
G1 X129.503 Y106.532 E0.00946
G1 X129.428 Y107.015 E0.01274
G1 X129.234 Y107.631 E0.01685
G1 X129.080 Y107.959 E0.00942
G1 X128.826 Y108.377 E0.01274
G1 X128.411 Y108.873 E0.01687
G1 X128.149 Y109.112 E0.00923
G1 X127.748 Y109.406 E0.01296
G1 X127.162 Y109.712 E0.01724
G1 X126.527 Y109.911 E0.01735
G1 X126.041 Y109.986 E0.01280
G1 X125.700 Y110.001 E0.00889
G1 X125.360 Y109.986 E0.00886
G1 X124.869 Y109.911 E0.01295
G1 X124.238 Y109.712 E0.01724
G1 X123.649 Y109.405 E0.01731
G1 X123.251 Y109.112 E0.01286
G1 X122.993 Y108.876 E0.00911
G1 X122.627 Y108.452 E0.01460
G1 X122.224 Y107.804 E0.01988
G1 X122.267 Y107.195 E0.01591
G1 X121.949 Y106.801 E0.01317
M204 S1000
G1 X122.322 Y106.598 F10800.000
M204 S800
G1 F1500
G1 X122.300 Y106.182 E0.01085
G1 X122.320 Y105.821 E0.00943
G1 X122.379 Y105.452 E0.00973
G1 X122.557 Y104.885 E0.01548
G1 X122.701 Y104.581 E0.00878
G1 X122.907 Y104.244 E0.01029
G1 X123.095 Y103.997 E0.00809
G1 X123.296 Y103.778 E0.00774
G1 X123.516 Y103.576 E0.00779
G1 X123.869 Y103.317 E0.01140
G1 X124.394 Y103.043 E0.01545
G1 X124.678 Y102.939 E0.00787
G1 X124.985 Y102.858 E0.00827
G1 X125.398 Y102.796 E0.01088
G1 X125.700 Y102.782 E0.00789
